src/images/svg/payment-methods/payment-skrill.svg

<svg width="128" height="80" viewBox="0 0 128 80" fill="none" xmlns="http://www.w3.org/2000/svg">
<path fill-rule="evenodd" clip-rule="evenodd" d="M82.6183 32.7361C84.5022 32.7361 86.0294 31.2281 86.0294 29.368C86.0294 27.5079 84.5022 26 82.6183 26C80.7344 26 79.2072 27.5079 79.2072 29.368C79.2072 31.2281 80.7344 32.7361 82.6183 32.7361ZM56.534 34.545C55.5915 36.9609 54.2621 39.2116 52.5966 41.2111V27.5391L45.5112 28.9283V53.7138H52.5966V46.0483C54.0042 48.433 55.0286 51.0189 55.6332 53.7138H64.166C63.3259 50.2458 59.6313 43.8495 59.6313 43.8495C61.8253 41.0535 63.5166 37.9063 64.6316 34.545H56.534ZM75.2698 34.2851C68.8828 34.495 65.6438 37.2834 65.6438 42.9401V53.7138H72.5976V44.9289C72.5976 41.5609 73.0429 40.1217 77.0917 39.9318V34.3351C76.4854 34.2462 75.8721 34.2128 75.2596 34.2352L75.2698 34.2851ZM33.5167 37.2834C32.6361 37.2334 30.6218 37.1035 30.6218 35.2846C30.6218 33.1158 33.5268 33.1158 34.62 33.1158C36.7211 33.2086 38.8006 33.5748 40.8045 34.2052C40.8045 34.2052 41.8167 34.545 42.6366 34.8948H42.7074V29.0082H42.6062C39.7053 27.9843 36.6366 27.5031 33.5572 27.5891C25.7734 27.5391 23 32.0065 23 35.8542C23 38.0629 23.9616 43.2699 32.879 43.8495C33.6382 43.8495 35.6423 44.0095 35.6423 45.8484C35.6423 47.3875 34.0026 48.287 31.2393 48.287C28.5839 48.2665 25.9553 47.7616 23.4859 46.7978V52.9942C26.5001 53.7156 29.5958 54.0515 32.6968 53.9936C40.3085 53.9936 43.7196 49.7561 43.7196 45.5585C43.7196 40.7913 39.9037 37.7031 33.5066 37.2734L33.5167 37.2834ZM79.1566 53.7138H86.0699V34.565H79.1566V53.7138ZM99.0766 28.7284V53.7138H106V27.5391L99.0867 28.7584L99.0766 28.7284ZM88.9546 28.7284L95.8781 27.5391V53.7138H88.9951V28.7284H88.9546Z" fill="#6C2556"/>
</svg>

<svg width="128" height="80" fill="none" xmlns="http://www.w3.org/2000/svg"><path fill-rule="evenodd" clip-rule="evenodd" d="M82.618 32.736c1.884 0 3.411-1.508 3.411-3.368 0-1.86-1.527-3.368-3.41-3.368-1.885 0-3.412 1.508-3.412 3.368 0 1.86 1.527 3.368 3.411 3.368zm-26.084 1.809a24.105 24.105 0 0 1-3.937 6.666V27.54l-7.086 1.39v24.785h7.086v-7.666a26.486 26.486 0 0 1 3.036 7.666h8.533c-.84-3.468-4.535-9.864-4.535-9.864a30.763 30.763 0 0 0 5-9.305h-8.097zm18.736-.26c-6.387.21-9.626 2.998-9.626 8.655v10.774h6.954v-8.785c0-3.368.445-4.807 4.494-4.997v-5.597a10.088 10.088 0 0 0-1.832-.1l.01.05zm-41.753 2.998c-.88-.05-2.895-.18-2.895-1.998 0-2.17 2.905-2.17 3.998-2.17 2.101.094 4.18.46 6.184 1.09 0 0 1.013.34 1.833.69h.07v-5.887h-.1a25.088 25.088 0 0 0-9.05-1.419C25.773 27.54 23 32.007 23 35.854c0 2.209.962 7.416 9.879 7.995.76 0 2.763.16 2.763 2 0 1.539-1.64 2.438-4.403 2.438a21.791 21.791 0 0 1-7.753-1.49v6.197a36.638 36.638 0 0 0 9.21 1c7.613 0 11.024-4.238 11.024-8.435 0-4.768-3.816-7.856-10.213-8.286l.01.01zm45.64 16.43h6.913V34.566h-6.913v19.149zm19.92-24.985v24.986H106V27.539l-6.913 1.22-.01-.03zm-10.122 0 6.923-1.189v26.175h-6.883V28.728h-.04z" fill="#6C2556"/></svg>
